X:1
T: Neil Gow
T: Niel Gow
T:2nd setting
R:Strathspey
Q: 128
K:G
M:4/4
L:1/16
|:e2|dB3 g3d e2A2 A2e2|dB3 g3d e6 f2|gfed g3d e2A2 A3f|g3e d2B2 G6 e2|
dB3 g3d e2A2 A2e2|dB3 g3d e6 f2|gfed g3d e2A2 A3f|g3e d2B2 G6 D2|
GG3 B3G A3E E2A2|GG3 GG3 g3d e2g2|d2g2 B2d'2 A2E2 E2ef|gfed g3B G6 D2|
GG3 B3G A3E E2A2|GG3 GG3 g3d e2g2|d2g2 B2d'2 A2E2 E2ef|gfed g3B G6:|
